public/avatar/shoe/33.svg

<svg xmlns:xlink="http://www.w3.org/1999/xlink" height="38.3" width="36.05" xmlns="http://www.w3.org/2000/svg"><use height="15.8" transform="translate(9.4 12.75)" width="23.35" xlink:href="#a"/><defs><g id="a"><path d="m5.3 10.1.85-1.6q.5-.3 1.25-2.9l1 .75q.3.4.15 1.25-.15.95-.8 1.35L5.3 10.1" fill="#c99f55" fill-rule="evenodd" transform="translate(14.4 2.1)"/><path d="M5.1 10.2q-7.7 2.45-11.15 2.45-4.95 0-6.6-1.1-.9-.65-.7-1.9.2-1.25 1.05-1.4l1.95-2.5q6.2-6.9 12.05-6.85 1.7.05 3.95 2.8 2.05 2.65 2.1 4.2.15 3.4-2.65 4.3" fill="#4fbcff" fill-rule="evenodd" transform="translate(14.4 2.1)"/><path d="M7.3 4.35q.7 1.8.55 2.15-1 1.9-4.3 2.6l-5 1.2-2.15.85-3.6.25q-1.25-.7-1.9-.7l-2.25-.45-1-.7.3-1.75q.65-1.6 4.2-5.25 3.7-4.3 8.5-3.95 4.85.35 6.65 5.75" fill="#c49480" fill-rule="evenodd" transform="translate(14.4 2.1)"/><path d="M7.65 5.4q.25 1.65-3.1 2.85-3.3 1.3-4.2 1.1m-9.1 1.05-2.35-.7-.95-.7-.3-1.35" fill="none" stroke="#94765c" stroke-linecap="round" stroke-linejoin="round" transform="translate(14.4 2.1)"/><path d="m-13.2 8.3-.5.65q-.4.8 0 1.75 1.35 2.8 9.25 2.45Q-.6 12.9 6.25 9.7q2.6-1.1 2.15-3.35" fill="none" stroke="#27128f" stroke-linecap="round" stroke-linejoin="round" transform="translate(14.4 2.1)"/><path d="M8.4 6.55q0-1.15-.7-2.3Q7.05 2.5 5.45.95q-1.6-1.6-4-2.3-2.45-.7-5.3.7-2 .9-3.3 2.35l-5.3 6-.75.65" fill="none" stroke="#000" stroke-linecap="round" stroke-linejoin="round" transform="translate(14.4 2.1)"/><path d="M-.9 9.7q-1.3 1.65-3.9 1.65-2.55 0-2.5-.55" fill="none" stroke="#94765c" stroke-linecap="round" stroke-linejoin="round" transform="translate(14.4 2.1)"/><path d="M-7.6 2.7q4.2.15 5.6 2.4Q-.55 7.3.2 10.45q-3.6 3-9.05 1.45-4.3-1.3-4.3-2.5 0-.55 2.55-3.55l3-3.15" fill="#4fbcff" fill-rule="evenodd" transform="translate(14.4 2.1)"/><path d="M-9.1 3.7q1.55-1.05 1.55 1.45 0 1.15-1.15 3.45l1.9-1.35q2.35-1.45 3.55-1 1 .3 1.25 1.45.3 1.15-.4 1.7-.85.7-2.4-.45.75-.05 1.2-.9.3-.65-.4-.7-.7-.1-1.35.35-1.85 1.25.1 2.75 1.05.75 4.85.75l2.75.15-3.7 1-3.6.45-3.45-.3q-3.75-1-4.4-1.6l-.75-2.4 2-.3q1.35-.5 1.9-1.45.6-1.15.4-1.6-.25-.45-1.15.3l-.85.85q1.15-1.85 2.15-2.6" fill="#0081cf" fill-rule="evenodd" transform="translate(14.4 2.1)"/></g></defs></svg>

<?xml version="1.0" encoding="UTF-8" standalone="no"?>
<svg xmlns:xlink="http://www.w3.org/1999/xlink" height="38.3px" width="36.05px" xmlns="http://www.w3.org/2000/svg">
  <g transform="matrix(1.0, 0.0, 0.0, 1.0, 23.8, 14.85)">
    <use height="15.8" transform="matrix(1.0, 0.0, 0.0, 1.0, -14.4, -2.1)" width="23.35" xlink:href="#shape0"/>
  </g>
  <defs>
    <g id="shape0" transform="matrix(1.0, 0.0, 0.0, 1.0, 14.4, 2.1)">
      <path d="M5.3 10.1 L6.15 8.5 Q6.65 8.2 7.4 5.6 L8.4 6.35 Q8.7 6.75 8.55 7.6 8.4 8.55 7.75 8.95 L5.3 10.1" fill="#c99f55" fill-rule="evenodd" stroke="none"/>
      <path d="M5.1 10.2 Q-2.6 12.65 -6.05 12.65 -11.0 12.65 -12.65 11.55 -13.55 10.9 -13.35 9.65 -13.15 8.4 -12.3 8.25 L-10.35 5.75 Q-4.15 -1.15 1.7 -1.1 3.4 -1.05 5.65 1.7 7.7 4.35 7.75 5.9 7.9 9.3 5.1 10.2" fill="#4fbcff" fill-rule="evenodd" stroke="none"/>
      <path d="M7.3 4.35 Q8.0 6.15 7.85 6.5 6.85 8.4 3.55 9.1 L-1.45 10.3 -3.6 11.15 -7.2 11.4 Q-8.45 10.7 -9.1 10.7 L-11.35 10.25 -12.35 9.55 -12.05 7.8 Q-11.4 6.2 -7.85 2.55 -4.15 -1.75 0.65 -1.4 5.5 -1.05 7.3 4.35" fill="#c49480" fill-rule="evenodd" stroke="none"/>
      <path d="M7.65 5.4 Q7.9 7.05 4.55 8.25 1.25 9.55 0.35 9.35" fill="none" stroke="#94765c" stroke-linecap="round" stroke-linejoin="round" stroke-width="1.0"/>
      <path d="M-8.75 10.4 L-11.1 9.7 -12.05 9.0 -12.35 7.65" fill="none" stroke="#94765c" stroke-linecap="round" stroke-linejoin="round" stroke-width="1.0"/>
      <path d="M-13.2 8.3 L-13.7 8.95 Q-14.1 9.75 -13.7 10.7 -12.35 13.5 -4.45 13.15 -0.6 12.9 6.25 9.7 8.85 8.6 8.4 6.35" fill="none" stroke="#27128f" stroke-linecap="round" stroke-linejoin="round" stroke-width="1.0"/>
      <path d="M8.4 6.55 Q8.4 5.4 7.7 4.25 7.05 2.5 5.45 0.95 3.85 -0.65 1.45 -1.35 -1.0 -2.05 -3.85 -0.65 -5.85 0.25 -7.15 1.7 L-12.45 7.7 -13.2 8.35" fill="none" stroke="#000000" stroke-linecap="round" stroke-linejoin="round" stroke-width="1.0"/>
      <path d="M-0.9 9.7 Q-2.2 11.35 -4.8 11.35 -7.35 11.35 -7.3 10.8" fill="none" stroke="#94765c" stroke-linecap="round" stroke-linejoin="round" stroke-width="1.0"/>
      <path d="M-7.6 2.7 Q-3.4 2.85 -2.0 5.1 -0.55 7.3 0.2 10.45 -3.4 13.45 -8.85 11.9 -13.15 10.6 -13.15 9.4 -13.15 8.85 -10.6 5.85 L-7.6 2.7" fill="#4fbcff" fill-rule="evenodd" stroke="none"/>
      <path d="M-9.1 3.7 Q-7.55 2.65 -7.55 5.15 -7.55 6.3 -8.7 8.6 L-6.8 7.25 Q-4.45 5.8 -3.25 6.25 -2.25 6.55 -2.0 7.7 -1.7 8.85 -2.4 9.4 -3.25 10.1 -4.8 8.95 -4.05 8.9 -3.6 8.05 -3.3 7.4 -4.0 7.35 -4.7 7.25 -5.35 7.7 -7.2 8.95 -5.25 10.45 -4.2 11.2 -0.4 11.2 L2.35 11.35 -1.35 12.35 -4.95 12.8 -8.4 12.5 Q-12.15 11.5 -12.8 10.9 L-13.55 8.5 -11.55 8.2 Q-10.2 7.7 -9.65 6.75 -9.05 5.6 -9.25 5.15 -9.5 4.7 -10.4 5.45 L-11.25 6.3 Q-10.1 4.45 -9.1 3.7" fill="#0081cf" fill-rule="evenodd" stroke="none"/>
    </g>
  </defs>
</svg>
